src/_includes/svg/azure.svg

<svg width="279" height="394" viewBox="0 0 279 394" fill="none" xmlns="http://www.w3.org/2000/svg">
<mask id="mask0_270_413" style="mask-type:alpha" maskUnits="userSpaceOnUse" x="0" y="0" width="272" height="387">
<rect x="0.41748" width="270.874" height="386.243" rx="10" fill="#FBDC90"/>
</mask>
<g mask="url(#mask0_270_413)">
<path d="M241.886 403.264L207.402 358.675L227.664 343.005L249.612 371.384C251.346 373.627 254.556 374.037 256.798 372.303C259.041 370.568 259.451 367.359 257.717 365.116L235.768 336.737L243.873 330.469C250.588 325.276 251.821 315.624 246.628 308.91L243.494 304.857L253.999 296.733L280.635 300.173C281.984 300.345 283.345 299.963 284.42 299.132L300.63 286.596C302.872 284.861 303.283 281.652 301.548 279.409C299.814 277.167 296.604 276.757 294.362 278.491L279.805 289.749L253.169 286.309C251.82 286.137 250.459 286.519 249.384 287.35L237.226 296.752L218.422 272.438L246.802 250.49C249.045 248.756 249.455 245.546 247.721 243.304C245.986 241.061 242.777 240.651 240.534 242.385L212.154 264.333L193.351 240.019L205.508 230.617C206.583 229.785 207.295 228.564 207.467 227.215L210.837 200.57L251.623 169.027C253.865 167.293 254.276 164.084 252.541 161.841C250.807 159.599 247.597 159.188 245.355 160.923L202.916 193.743C201.841 194.575 201.129 195.796 200.957 197.145L197.587 223.79L187.083 231.914L183.949 227.862C178.756 221.147 169.104 219.914 162.389 225.107L154.285 231.375L132.326 202.982C130.592 200.739 127.383 200.329 125.14 202.063C122.897 203.798 122.487 207.007 124.222 209.25L146.17 237.63L125.908 253.299L91.4237 208.71C89.6894 206.468 86.48 206.057 84.2374 207.792C81.9948 209.526 81.5846 212.736 83.3189 214.978L117.803 259.567L97.5412 275.237L75.5931 246.858C73.8587 244.615 70.6492 244.205 68.4067 245.939C66.1641 247.674 65.7539 250.883 67.4882 253.126L89.4363 281.505L81.3316 287.773C74.6169 292.966 73.3836 302.618 78.5765 309.333L81.7105 313.385L71.2057 321.509L44.5694 318.069C43.2205 317.897 41.8599 318.279 40.7845 319.11L24.575 331.646C22.3324 333.381 21.9222 336.59 23.6566 338.833C25.3909 341.075 28.6004 341.485 30.843 339.751L45.4001 328.493L72.0364 331.933C73.3853 332.105 74.7459 331.723 75.8213 330.892L87.9784 321.49L106.782 345.804L78.4026 367.752C76.16 369.486 75.7498 372.696 77.4842 374.938C79.2185 377.181 82.428 377.591 84.6706 375.857L113.037 353.919L131.841 378.233L119.684 387.635C118.609 388.467 117.897 389.688 117.725 391.037L114.355 417.682L99.798 428.94C97.5554 430.674 97.1452 433.884 98.8796 436.126C100.614 438.369 103.823 438.779 106.066 437.045L122.276 424.509C123.351 423.677 124.062 422.456 124.235 421.107L127.604 394.462L138.109 386.338L141.243 390.39C146.436 397.105 156.088 398.338 162.802 393.146L170.907 386.878L192.855 415.257C194.59 417.5 197.799 417.91 200.042 416.176C202.284 414.441 202.694 411.232 200.96 408.989L179.012 380.61L199.274 364.94L233.758 409.529C235.492 411.771 238.702 412.182 240.944 410.447C243.187 408.713 243.62 405.507 241.886 403.264ZM127.95 322.958C125.707 324.692 122.498 324.282 120.763 322.039L108.227 305.83C106.493 303.587 106.903 300.378 109.146 298.643L125.355 286.108C127.598 284.373 130.807 284.783 132.542 287.026L145.078 303.235C146.812 305.478 146.402 308.687 144.159 310.422L127.95 322.958ZM168.487 291.608C166.244 293.342 163.034 292.932 161.3 290.689L148.764 274.48C147.03 272.237 147.44 269.028 149.683 267.293L165.892 254.757C168.135 253.023 171.344 253.433 173.078 255.676L185.614 271.885C187.349 274.128 186.939 277.337 184.696 279.072L168.487 291.608ZM159.3 363.495C157.057 365.229 153.848 364.819 152.113 362.576L139.577 346.367C137.843 344.124 138.253 340.915 140.496 339.18L156.705 326.644C158.948 324.91 162.157 325.32 163.892 327.563L176.428 343.772C178.162 346.015 177.752 349.224 175.509 350.959L159.3 363.495ZM199.837 332.145C197.594 333.879 194.385 333.469 192.65 331.226L180.114 315.017C178.38 312.774 178.79 309.565 181.033 307.83L197.242 295.294C199.485 293.56 202.694 293.97 204.429 296.213L216.965 312.422C218.699 314.665 218.289 317.874 216.046 319.609L199.837 332.145Z" fill="#337595"/>
<path d="M247.582 394.289C241.842 386.866 243.212 376.145 250.635 370.404C258.057 364.664 268.779 366.034 274.519 373.457C280.26 380.88 278.89 391.601 271.467 397.342C264.044 403.082 253.323 401.712 247.582 394.289Z" fill="#337595"/>
<path d="M256.296 388.43C250.556 381.007 251.926 370.286 259.349 364.545C266.771 358.805 277.493 360.175 283.233 367.598C288.974 375.021 287.604 385.742 280.181 391.483C272.758 397.223 262.037 395.853 256.296 388.43Z" fill="#5B9AD2"/>
<path d="M57.0273 213.368C51.2867 205.945 52.6568 195.224 60.0796 189.483C67.5025 183.743 78.2239 185.113 83.9645 192.536C89.7051 199.959 88.3349 210.68 80.9121 216.421C73.4893 222.161 62.7679 220.791 57.0273 213.368Z" fill="#337595"/>
<path d="M67.119 219.206C60.541 211.216 61.7019 199.357 69.6927 192.779C77.6834 186.201 89.5426 187.362 96.1206 195.352C102.699 203.343 101.538 215.202 93.5468 221.78C85.5561 228.358 73.697 227.197 67.119 219.206Z" fill="#5B9AD2"/>
<path d="M122.085 211.824C116.344 204.402 117.714 193.68 125.137 187.94C132.56 182.199 143.281 183.569 149.022 190.992C154.763 198.415 153.392 209.136 145.97 214.877C138.547 220.617 127.825 219.247 122.085 211.824Z" fill="#337595"/>
<path d="M112.781 206.654C107.041 199.231 108.411 188.51 115.834 182.769C123.257 177.028 133.978 178.399 139.719 185.821C145.459 193.244 144.089 203.966 136.666 209.706C129.243 215.447 118.522 214.077 112.781 206.654Z" fill="#3B93E4"/>
<path d="M46.8491 266.467C41.1085 259.044 42.4786 248.323 49.9014 242.582C57.3242 236.842 68.0457 238.212 73.7863 245.635C79.5269 253.058 78.1567 263.779 70.7339 269.52C63.3212 275.273 52.5998 273.903 46.8491 266.467Z" fill="#337595"/>
<path d="M51.9199 269.608C46.1793 262.185 47.5494 251.464 54.9722 245.723C62.395 239.983 73.1165 241.353 78.8571 248.776C84.5977 256.199 83.2275 266.92 75.8047 272.661C68.3819 278.401 57.6706 277.044 51.9199 269.608Z" fill="#4892C4"/>
</g>
</svg>

<svg xmlns="http://www.w3.org/2000/svg" fill="none" aria-hidden="true" viewBox="0 0 270.874 386.243"><mask id="a" width="272" height="387" x="0" y="0" maskUnits="userSpaceOnUse" style="mask-type:alpha"><rect width="270.874" height="386.243" x=".417" class="cls-1" rx="10"/></mask><g mask="url(#a)"><path d="m241.886 403.264-34.484-44.589 20.262-15.67 21.948 28.379a5.115 5.115 0 0 0 7.186.919 5.116 5.116 0 0 0 .919-7.187l-21.949-28.379 8.105-6.268c6.715-5.193 7.948-14.845 2.755-21.559l-3.134-4.053 10.505-8.124 26.636 3.44a5.135 5.135 0 0 0 3.785-1.041l16.21-12.536a5.116 5.116 0 0 0 .918-7.187 5.116 5.116 0 0 0-7.186-.918l-14.557 11.258-26.636-3.44a5.135 5.135 0 0 0-3.785 1.041l-12.158 9.402-18.804-24.314 28.38-21.948a5.115 5.115 0 0 0 .919-7.186 5.116 5.116 0 0 0-7.187-.919l-28.38 21.948-18.803-24.314 12.157-9.402a5.132 5.132 0 0 0 1.959-3.402l3.37-26.645 40.786-31.543a5.115 5.115 0 0 0 .918-7.186 5.115 5.115 0 0 0-7.186-.918l-42.439 32.82a5.132 5.132 0 0 0-1.959 3.402l-3.37 26.645-10.504 8.124-3.134-4.052c-5.193-6.715-14.845-7.948-21.56-2.755l-8.104 6.268-21.959-28.393a5.115 5.115 0 0 0-7.186-.919 5.115 5.115 0 0 0-.918 7.187l21.948 28.38-20.262 15.669-34.484-44.589a5.115 5.115 0 0 0-7.187-.918 5.115 5.115 0 0 0-.918 7.186l34.484 44.589-20.262 15.67-21.948-28.379a5.116 5.116 0 0 0-7.186-.919 5.116 5.116 0 0 0-.919 7.187l21.948 28.379-8.104 6.268c-6.715 5.193-7.948 14.845-2.755 21.56l3.133 4.052-10.504 8.124-26.637-3.44a5.136 5.136 0 0 0-3.785 1.041l-16.209 12.536a5.116 5.116 0 0 0-.918 7.187 5.116 5.116 0 0 0 7.186.918L45.4 328.493l26.636 3.44a5.136 5.136 0 0 0 3.785-1.041l12.157-9.402 18.804 24.314-28.38 21.948a5.115 5.115 0 0 0-.918 7.186 5.116 5.116 0 0 0 7.187.919l28.366-21.938 18.804 24.314-12.157 9.402a5.132 5.132 0 0 0-1.959 3.402l-3.37 26.645-14.557 11.258a5.115 5.115 0 0 0-.918 7.186 5.116 5.116 0 0 0 7.186.919l16.21-12.536a5.136 5.136 0 0 0 1.959-3.402l3.369-26.645 10.505-8.124 3.134 4.052c5.193 6.715 14.845 7.948 21.559 2.756l8.105-6.268 21.948 28.379a5.116 5.116 0 0 0 7.187.919 5.117 5.117 0 0 0 .918-7.187l-21.948-28.379 20.262-15.67 34.484 44.589a5.115 5.115 0 0 0 7.186.918c2.243-1.734 2.676-4.94.942-7.183ZM127.95 322.958a5.116 5.116 0 0 1-7.187-.919l-12.536-16.209a5.116 5.116 0 0 1 .919-7.187l16.209-12.535a5.115 5.115 0 0 1 7.187.918l12.536 16.209a5.116 5.116 0 0 1-.919 7.187l-16.209 12.536Zm40.537-31.35a5.116 5.116 0 0 1-7.187-.919l-12.536-16.209a5.116 5.116 0 0 1 .919-7.187l16.209-12.536a5.115 5.115 0 0 1 7.186.919l12.536 16.209a5.115 5.115 0 0 1-.918 7.187l-16.209 12.536Zm-9.187 71.887a5.116 5.116 0 0 1-7.187-.919l-12.536-16.209a5.116 5.116 0 0 1 .919-7.187l16.209-12.536a5.116 5.116 0 0 1 7.187.919l12.536 16.209a5.116 5.116 0 0 1-.919 7.187L159.3 363.495Zm40.537-31.35a5.116 5.116 0 0 1-7.187-.919l-12.536-16.209a5.116 5.116 0 0 1 .919-7.187l16.209-12.536a5.116 5.116 0 0 1 7.187.919l12.536 16.209a5.116 5.116 0 0 1-.919 7.187l-16.209 12.536Z" class="cls-2"/><path d="M247.582 394.289c-5.74-7.423-4.37-18.144 3.053-23.885 7.422-5.74 18.144-4.37 23.884 3.053 5.741 7.423 4.371 18.144-3.052 23.885-7.423 5.74-18.144 4.37-23.885-3.053Z" class="cls-2"/><path d="M256.296 388.43c-5.74-7.423-4.37-18.144 3.053-23.885 7.422-5.741 18.144-4.37 23.884 3.053 5.741 7.422 4.371 18.144-3.052 23.884-7.423 5.741-18.144 4.371-23.885-3.052Z" class="cls-3"/><path d="M57.027 213.368c-5.74-7.423-4.37-18.144 3.053-23.885 7.422-5.74 18.144-4.37 23.885 3.052 5.74 7.423 4.37 18.145-3.053 23.885-7.423 5.741-18.144 4.371-23.885-3.052Z" class="cls-2"/><path d="M67.119 219.206c-6.578-7.991-5.417-19.85 2.574-26.428 7.99-6.578 19.85-5.417 26.428 2.574 6.578 7.991 5.417 19.85-2.574 26.428-7.99 6.578-19.85 5.417-26.428-2.574ZM122.085 211.824c-5.741-7.422-4.371-18.144 3.052-23.884 7.423-5.741 18.144-4.371 23.885 3.052 5.741 7.423 4.37 18.144-3.052 23.885-7.423 5.74-18.145 4.37-23.885-3.053Z" class="cls-2"/><path d="M112.781 206.654c-5.74-7.423-4.37-18.145 3.053-23.885 7.423-5.741 18.144-4.371 23.885 3.052 5.74 7.423 4.37 18.144-3.053 23.885-7.423 5.741-18.144 4.37-23.885-3.052Z" class="cls-4"/><path d="M46.85 266.467c-5.742-7.423-4.371-18.144 3.051-23.885 7.423-5.74 18.145-4.37 23.885 3.053 5.74 7.422 4.37 18.144-3.052 23.884-7.413 5.754-18.134 4.384-23.885-3.052Z" class="cls-2"/><path d="M51.92 269.608c-5.74-7.423-4.37-18.144 3.052-23.885 7.423-5.74 18.145-4.37 23.885 3.053 5.74 7.423 4.37 18.144-3.052 23.885-7.423 5.74-18.134 4.383-23.885-3.053Z" class="cls-5"/></g></svg>
